X:34
T:Bamford's Hornpipe (Craig 34)
M:C
L:1/8
B:Empire Violin Collection of Hornpipes
H:Published by Thomas Craig
H:Music Publisher, &c.
H:George Street, Aberdeen, N.B.
Z:Peter Dunk December 2011
R:hornpipe
Q:1/4=140
K:Bb
(de) | fbdf edcB | Ac F2 F3 E |1DF B2d2 Bd | efed cBAB :|2 DFBd fecA |  B2d2B2 AB||
|: cFAc eFAc | BDFB dFBd |1 fBdf bBdf | efed cBAB :|2 fgfe decd | Bbfd B2 |]

